X:310
T:Kilfenora Jig, The
R:jig
H:Nearly always preceded by #239
D:Arcady: Many Happy Returns
D:Johnstons
Z:id:hn-jig-310
M:6/8
K:D
|:F2A ABA|ABA FED|G2B B=cB|B=cB BAG|
F2A ABA|ABA FED|dcB AGF|1 GFE D2E:|2 GFE DFA||
|:d2A F2A|dfe d2c|dcB AGF|EFG ABc|
d2A F2A|dfe d2c|dcB AGF|1 GFE DFA:|2 GFE D2E||
P:variations
|:F2A ~A2F|ABA FED|G2B ~B2G|B2G Bcd|
F2A ~A2F|ABA FED|1 BcB AGF|GFE D2E:|2 dcB AGF|GFE DFA||
|:d2A F2A|dec d2c|dcB AGF|EFG ABc|
d2A F2A|dec d2c|dcB AGF|1 GFE DFA:|2 GFE D2E||

